src/assets/icons/spinner.svg

<?xml version="1.0" encoding="UTF-8" standalone="no"?>
<svg width="16px" height="28px" viewBox="0 0 16 28" version="1.1" xmlns="http://www.w3.org/2000/svg" xmlns:xlink="http://www.w3.org/1999/xlink" xmlns:sketch="http://www.bohemiancoding.com/sketch/ns">
  <g id="Style" stroke="none" stroke-width="1" fill="none" fill-rule="evenodd">
    <g transform="translate(-1063.000000, -3085.000000)" id="Group" fill="#ccc">
      <g transform="translate(1065.000000, 3093.000000)">
        <path d="M11.8117143,0.684857143 C11.7135238,0.586666667 11.5970476,0.537428571 11.4625714,0.537428571 C11.3280952,0.537428571 11.2118095,0.586666667 11.1134286,0.684857143 L10.1047619,1.68590476 C9.5512381,1.16342857 8.91752381,0.758571429 8.20371429,0.47152381 C7.49,0.18447619 6.7552381,0.040952381 6,0.040952381 C4.57742857,0.040952381 3.336,0.47152381 2.27552381,1.33285714 C1.21504762,2.19409524 0.516761905,3.31780952 0.18047619,4.70419048 L0.18047619,4.75847619 C0.18047619,4.82571429 0.205047619,4.88390476 0.254190476,4.93304762 C0.303333333,4.98219048 0.36152381,5.0067619 0.428761905,5.0067619 L1.97285714,5.0067619 C2.08666667,5.0067619 2.16419048,4.9472381 2.20561905,4.82828571 C2.42285714,4.31104762 2.55990476,4.00847619 2.61685714,3.92047619 C2.97895238,3.3307619 3.46,2.86780952 4.06009524,2.53152381 C4.66019048,2.19533333 5.3067619,2.02714286 5.99990476,2.02714286 C7.03971429,2.02714286 7.94238095,2.38152381 8.708,3.09019048 L7.63704762,4.16095238 C7.53895238,4.2592381 7.48971429,4.37571429 7.48971429,4.51019048 C7.48971429,4.64466667 7.53895238,4.76104762 7.63704762,4.85933333 C7.73542857,4.95761905 7.85190476,5.0067619 7.98638095,5.0067619 L11.4625714,5.0067619 C11.5970476,5.0067619 11.7134286,4.95761905 11.8117143,4.85933333 C11.9099048,4.76104762 11.9590476,4.64466667 11.9590476,4.51019048 L11.9590476,1.034 C11.9590476,0.89952381 11.9101905,0.783142857 11.8117143,0.684857143 L11.8117143,0.684857143 Z" id="Shape" sketch:type="MSShapeGroup"></path>
        <path d="M11.5167619,6.9932381 L10.0268571,6.9932381 C9.91314286,6.9932381 9.83552381,7.05266667 9.79419048,7.17171429 C9.57704762,7.68904762 9.43990476,7.99152381 9.38304762,8.07952381 C9.02085714,8.66904762 8.53980952,9.13219048 7.93980952,9.46838095 C7.33971429,9.80466667 6.69314286,9.9727619 6,9.9727619 C5.49828571,9.9727619 5.01457143,9.87971429 4.54904762,9.69342857 C4.08352381,9.50714286 3.66704762,9.2432381 3.29980952,8.90180952 L4.36285714,7.83885714 C4.46114286,7.74066667 4.51028571,7.62409524 4.51028571,7.48971429 C4.51028571,7.3552381 4.46114286,7.2387619 4.36285714,7.14057143 C4.26457143,7.04219048 4.14819048,6.99304762 4.01371429,6.99304762 L0.53752381,6.99304762 C0.402952381,6.99304762 0.286571429,7.04219048 0.188285714,7.14057143 C0.09,7.2387619 0.0408571429,7.3552381 0.0408571429,7.48971429 L0.0408571429,10.9659048 C0.0408571429,11.1002857 0.09,11.2168571 0.188285714,11.3150476 C0.286666667,11.4132381 0.403047619,11.4625714 0.53752381,11.4625714 C0.672,11.4625714 0.788380952,11.4132381 0.886666667,11.3150476 L1.88761905,10.314 C2.44114286,10.841619 3.07095238,11.2477143 3.77704762,11.5321905 C4.48314286,11.8167619 5.21380952,11.9589524 5.96904762,11.9589524 C7.38647619,11.9589524 8.6227619,11.528381 9.678,10.6670476 C10.7332381,9.80580952 11.426381,8.682 11.7575238,7.29571429 C11.7627619,7.28542857 11.7652381,7.2672381 11.7652381,7.24142857 C11.7652381,7.17419048 11.7405714,7.11609524 11.6914286,7.06685714 C11.6421905,7.01790476 11.584,6.9932381 11.5167619,6.9932381 L11.5167619,6.9932381 Z" id="Shape" sketch:type="MSShapeGroup"></path>
      </g>
    </g>
  </g>
</svg>

<svg
      xmlns="http://www.w3.org/2000/svg"
      width="16"
      height="28"
      viewBox="0 0 16 28"
    >
      <g fill="none" fillRule="evenodd" stroke="none" strokeWidth="1">
        <g fill="#ccc" transform="translate(-1063 -3085) translate(1065 3093)">
          <path d="M11.812.685a.477.477 0 00-.35-.148c-.134 0-.25.05-.349.148l-1.008 1A6.012 6.012 0 008.204.473 5.856 5.856 0 006 .04c-1.423 0-2.664.43-3.724 1.292C1.215 2.194.516 3.318.18 4.704v.054c0 .068.025.126.074.175.05.05.108.074.175.074h1.544c.114 0 .191-.06.233-.179.217-.517.354-.82.41-.908A3.912 3.912 0 014.06 2.532 3.905 3.905 0 016 2.027c1.04 0 1.942.355 2.708 1.063L7.637 4.161a.478.478 0 00-.147.35c0 .134.049.25.147.348a.478.478 0 00.35.148h3.476c.134 0 .25-.05.349-.148a.477.477 0 00.147-.349V1.034a.476.476 0 00-.147-.35zM11.517 6.993h-1.49c-.114 0-.191.06-.233.179-.217.517-.354.82-.411.908A3.914 3.914 0 017.94 9.468c-.6.337-1.247.505-1.94.505a3.87 3.87 0 01-1.451-.28 4.004 4.004 0 01-1.25-.791l1.064-1.063a.477.477 0 00.147-.35.477.477 0 00-.147-.348.477.477 0 00-.35-.148H.539a.477.477 0 00-.35.148.477.477 0 00-.147.349v3.476c0 .134.049.25.147.349a.478.478 0 00.35.148c.134 0 .25-.05.349-.148l1-1.001a5.923 5.923 0 004.082 1.645c1.417 0 2.654-.43 3.709-1.292 1.055-.861 1.748-1.985 2.08-3.371a.239.239 0 00-.066-.229.24.24 0 00-.175-.074z"></path>
        </g>
      </g>
    </svg>
